X:1
T:Jesus Will Listen to Me
T:Jesus Will Listen to Me
T:William James Kirkpatrick
T:Sarah R. R. Ernest, 1900
T:Public Domain Courtesy of the Cyber Hymnal™
T:Public Domain Courtesy of the Cyber Hymnal™
C:William James Kirkpatrick
Z:Public Domain
Z:Courtesy of the Cyber Hymnal™
%%score ( 1 2 ) ( 3 4 )
L:1/8
Q:1/4=95
M:4/4
K:F
V:1 treble 
V:2 treble 
V:3 bass 
V:4 bass 
V:1
 [CF][CG] | [FA]2 [FA][FA] [EB]2 [CE][CG] | [CG] [CF]4 z [_EF]2 | [DF]2 [CE][B,D] C2 [CF][FA] | %4
w: 1.~When my|soul is bowed down in the|dark- ness, With|trials and temp- ta- tion and|
w: 2.~When my|friends and my trust- ed ones|leave me, Then,|shroud- ed in sor- row and|
w: 3.~When my|heart and my life have grown|wea- ry, With|fail- ure and trou- ble and|
w: 4.~When I|find that my life’s day is|end- ing, And|sha- dows of ev- en- tide|
 [EG]6 [EG][FA] | [GB]2 [GB][GB] [Ec]2 [EG][GB] | [GB] [FA]4 z (FG) | [F_A]2 [FA][FA] [FA]2 [FG]F | %8
w: woe, When no|mor- tal can com- fort or|cheer me, To *|whom in that hour shall I|
w: fear, All a-|lone in the midst of earth’s|con- flict, I *|still have a list- en- ing|
w: loss, I may|still ask for help and for|com- fort From *|hands that were nailed to the|
w: fall, When I|en- ter the dark, lone- ly|val- ley, Ah, *|then up- on whom shall I|
 [Ec]6 z2 ||"^Refrain" [Fc]>[Fc] [Fc][FA] [FB][Fc] | [Fd]3- [Fd]2 z | [EB]>[EB] [EB][EG] [EA][EB] | %12
w: go?||||
w: ear.|Je- sus will lis- ten to|me, *|Je- sus will lis- ten to|
w: cross.||||
w: call?||||
 [FA]3- [FA]2 [FA]/[FB]/ | [Fc]2 [Fc][FA] [FB][Fc] | [Fd]2 [Fd][EG] [EA][EB] | %15
w: |||
w: me, * When, with|bur- dens break- ing, my|heart is ach- ing, Then|
w: |||
w: |||
 [Fc]!fermata![Fc]F[FA] !fermata![FA][EG] | [CF]3- [CF]2 |] %17
w: ||
w: Je- sus will lis- ten to|me. *|
w: ||
w: ||
V:2
 x2 | x8 | x8 | x4 C2 x2 | x8 | x8 | x6 F2 | x7 F | x8 || x6 | x6 | x6 | x6 | x6 | x6 | x2 F x3 | %16
 x5 |] %17
V:3
 [F,A,][F,B,] | [F,C]2 [F,C][F,C] [G,C]2 [C,G,][C,B,] | [F,B,] [F,A,]4 z [A,,C]2 | %3
w: ~ ~|~ ~ ~ ~ ~ ~|~ ~ ~|
 [B,,B,]2 [B,,F,][B,,F,] [F,A,]2 [F,A,][F,C] | [C,C]6 [C,C][C,C] | %5
w: ~ ~ ~ ~ ~ ~|~ ~ ~|
 [C,C]2 [C,C][C,C] [C,G,]2 [C,C][C,C] | [F,C] [F,C]4 z (A,B,) | %7
w: ~ ~ ~ ~ ~ ~|~ ~ ~ *|
 [F,C]2 [F,C][F,C] [=D,_D]2 [_D,B,][D,=B,] | [C,G,C]6 z2 || %9
w: ~ ~ ~ ~ ~ ~|~|
 [F,A,]>[F,A,] [F,A,][F,C] [F,G,][F,A,] | [B,,B,]>[D,B,] [F,B,] B,2 z | %11
w: ~ ~ ~ ~ ~ will|lis- ten to me,|
 [C,G,]>[C,G,] [C,G,][C,C] [C,C][C,C] | C>C C [F,C]2 [F,C]/[F,B,]/ | %13
w: ~ ~ ~ ~ ~ will|lis- ten to me, * *|
 [F,A,]2 [F,A,][F,C] [G,C][A,C] | B,2 B,[B,C] [A,C][G,B,] | %15
w: ||
 [F,A,]!fermata![F,A,][D,A,][C,C] !fermata![C,C][C,B,] | [F,A,]3- [F,A,]2 |] %17
w: ||
V:4
 x2 | x8 | x8 | x8 | x8 | x8 | x6 F,2 | x8 | x8 || x6 | x3 B,2 x | x6 | F,3- x3 | x6 | B,2 B, x3 | %15
 x6 | x5 |] %17

